src/assets/images/toolbox/nodemon.svg

<svg
  width="28"
  height="32"
  viewBox="0 0 28 32"
  fill="transparent"
  xmlns="http://www.w3.org/2000/svg">
  <path
    fill="#76D04B"
    d="M13.2446 31.797C13.4738 31.93 13.7339 32 13.9986 32C14.2633 32 14.5233 31.93 14.7525 31.797L27.2452 24.5589C27.4747 24.426 27.6654 24.2347 27.7979 24.0044C27.9304 23.774 28.0001 23.5126 28 23.2466V8.75921C27.9999 8.49331 27.9302 8.23211 27.7979 8.0018C27.6655 7.77149 27.4752 7.58017 27.2459 7.44705L14.7533 0.202978C14.5238 0.070003 14.2635 0 13.9985 0C13.7335 0 13.4732 0.070003 13.2437 0.202978L0.754398 7.44705C0.525061 7.5801 0.334623 7.77138 0.202206 8.0017C0.0697881 8.23203 5.21832e-05 8.49327 0 8.75921V23.2476C0 23.7883 0.287677 24.2883 0.754726 24.5587L13.2446 31.797Z"
  />
  <path
    fill="#4F4D3F"
    d="M22.0878 12.5467L21.5307 12.2248C22.3874 10.956 22.8994 9.04849 22.2574 6.19667C22.2574 6.19667 20.8117 10.2648 17.9056 10.13L14.5029 8.16393C14.3759 8.08912 14.2324 8.04722 14.0853 8.04199H14.0068C13.8594 8.04761 13.7156 8.08948 13.588 8.16393L10.1849 10.1299C7.27908 10.2651 5.83303 6.19656 5.83303 6.19656C5.19066 9.04827 5.70348 10.9558 6.55994 12.2247L6.00288 12.5467C5.86319 12.6278 5.74723 12.7443 5.66668 12.8847C5.58613 13.025 5.54383 13.1842 5.54404 13.3462L5.5608 25.1475C5.5608 25.3122 5.64566 25.4647 5.78967 25.5449C5.85823 25.5867 5.93693 25.6089 6.01717 25.6089C6.09741 25.6089 6.1761 25.5867 6.24467 25.5449L10.7524 22.9531C11.0377 22.783 11.2112 22.483 11.2112 22.1549V16.6417C11.2112 16.3129 11.3846 16.0081 11.6686 15.8453L13.5881 14.7354C13.7274 14.6537 13.886 14.6108 14.0473 14.6112C14.2076 14.6108 14.365 14.6536 14.5031 14.7353L16.422 15.8452C16.5614 15.9256 16.6773 16.0416 16.7577 16.1814C16.8381 16.3213 16.8804 16.48 16.88 16.6414V22.1548C16.88 22.4827 17.0558 22.7851 17.3393 22.953L21.846 25.5446C21.9152 25.5863 21.9944 25.6084 22.0751 25.6084C22.1558 25.6084 22.235 25.5863 22.3042 25.5446C22.3735 25.5042 22.431 25.4462 22.4709 25.3765C22.5108 25.3067 22.5318 25.2276 22.5316 25.1472L22.5463 13.3458C22.546 13.014 22.3725 12.7101 22.0878 12.5467Z"
  />
</svg>

<svg xmlns="http://www.w3.org/2000/svg" width="28" height="32" fill="transparent" xmlns:v="https://vecta.io/nano">
  <path fill="#76d04b"
    d="M13.245 31.797a1.5 1.5 0 0 0 1.508 0l12.493-7.238a1.51 1.51 0 0 0 .553-.555 1.52 1.52 0 0 0 .202-.758V8.759a1.52 1.52 0 0 0-.202-.757c-.132-.23-.323-.422-.552-.555L14.753.203C14.524.07 14.264 0 13.999 0s-.525.07-.755.203L.754 7.447c-.229.133-.42.324-.552.555A1.52 1.52 0 0 0 0 8.759v14.488c0 .541.288 1.041.755 1.311l12.49 7.238z" />
  <path fill="#4f4d3f"
    d="M22.088 12.547l-.557-.322c.857-1.269 1.369-3.176.727-6.028 0 0-1.446 4.068-4.352 3.933l-3.403-1.966c-.127-.075-.271-.117-.418-.122h-.079a.9.9 0 0 0-.419.122l-3.403 1.966c-2.906.135-4.352-3.933-4.352-3.933-.642 2.852-.13 4.759.727 6.028l-.557.322a.92.92 0 0 0-.336.338c-.081.14-.123.3-.123.461l.017 11.801a.45.45 0 0 0 .229.397c.069.042.147.064.228.064s.159-.022.228-.064l4.508-2.592c.285-.17.459-.47.459-.798v-5.513c0-.329.173-.634.457-.796l1.92-1.11c.139-.082.298-.125.459-.124a.89.89 0 0 1 .456.124l1.919 1.11c.139.08.255.196.336.336a.92.92 0 0 1 .122.46v5.513a.93.93 0 0 0 .459.798l4.507 2.592c.069.042.148.064.229.064s.16-.022.229-.064a.46.46 0 0 0 .227-.397l.015-11.801a.92.92 0 0 0-.458-.799z" />
</svg>
